X: 11
T: No_110_Song_to_Bring_Rain.krn
N: Derived from No_110_Song_to_Bring_Rain.krn
%%abc-version 2.0
%%abcx-abcm2ps-target-version 5.9.1 (29 Sep 2008)
%%abc-creator hum2abc beta
%%abcx-conversion-date 2019/03/15 08:36:13
%%humdrum-veritas 3201739144
%%humdrum-veritas-data 4165730901
%%linebreak <none>
%%barnumbers 0
L: 1/8
M: 2/4
K: G clef=bass
[K:clef=bass][M:2/4]z2A,A,/G,/ | 
A,4- | 
A,2-A,G,/ z/ | 
A,A,/G,/ A,G, | 
A,G, G,G, | 
(3E,D,D,D,2- | 
D,2D, z | 
A,A,/G,/ A,G, | 
A,G, G,G, | 
(3E,D,D,D,2- | 
D,2D, z | 
G,E,/E,/E,2- | 
E,G,/E,/ D, z | 
G,E,/E,/ E,D,/ z/ | 
E,2E,E, | 
E,4 |]  



